X: 31269
T: Paddy Hayes'
R: reel
M: 4/4
K: Dmajor
|:AG|FAAF AD F/G/A|dcBA BAGF|GBBA B/c/B ed|cdBc ABGA|
FAAF AD F/G/A|dcBA BAGF|EFGA Bgec|dB A/G/F D2:|
|:E/F/G|Ad f/e/d Ad f/e/d|B/c/d gd B/c/d gd|ceae ceaf|gece dA E/F/G|
Adfd Adfd|B/c/d gd B/c/d gd|ceaf gece|d2 dc d2:|

